packages/core/src/svgs/gofx.svg

<svg width="24" height="24" viewBox="0 0 24 24" fill="none" xmlns="http://www.w3.org/2000/svg">
<g clip-path="url(#clip0_31_10945)">
<path d="M0 0H24V24H0V0Z" fill="url(#paint0_linear_31_10945)"/>
<path d="M14.3957 5.2071C14.9271 5.29281 15.3 5.39567 15.5228 5.52852C15.7371 5.6571 15.9728 5.91424 16.2214 6.29995C16.0885 6.41138 15.9728 6.47138 15.8743 6.48852C15.6043 6.53567 15.3471 6.43281 15.1071 6.32567C14.9816 6.27031 14.8396 6.26523 14.7104 6.31148C14.5812 6.35773 14.4747 6.45178 14.4128 6.57424C14.3271 6.74567 14.3743 6.96852 14.52 7.0971C14.6614 7.2171 14.88 7.2471 15.0514 7.29852C15.1543 7.37995 15.2014 7.49138 15.1885 7.63281C15.1757 7.77852 15.1071 7.91567 14.9828 8.05281L15.18 8.57995C14.9443 8.63138 14.6571 8.64852 14.3228 8.6271C13.7614 8.59281 13.3543 8.04424 12.8657 7.79567C12.5808 7.73821 12.2906 7.71092 12 7.71424C9.42854 7.71424 7.71425 9.71995 7.71425 12C7.71425 14.2542 9.64282 16.2857 12.0343 16.2857C13.9285 16.2857 15.1414 15.3642 15.8571 14.1428H14.5285C13.8643 14.1428 13.2771 13.8 13.0928 13.1785L12.87 12.3771C12.8618 12.3507 12.8575 12.3233 12.8571 12.2957C12.8582 12.2168 12.8903 12.1416 12.9465 12.0863C13.0026 12.031 13.0783 11.9999 13.1571 12H18.0428C18.4457 12 18.7971 12.3 18.8443 12.69L18.8571 12.8571C18.87 13.56 18.4928 14.5371 18.1328 15.2142C17.5421 16.3174 16.6626 17.2391 15.5883 17.8808C14.5141 18.5225 13.2856 18.8599 12.0343 18.8571C10.2125 18.8571 8.46477 18.1358 7.17336 16.8508C5.88194 15.5658 5.15189 13.8217 5.14282 12C5.14282 8.43424 7.91568 5.55852 11.4428 5.26281C11.9143 5.19424 12.3857 5.13852 12.8571 5.14281C13.2771 5.14281 13.7871 5.16852 14.3957 5.2071ZM16.4143 6.53995C16.6071 6.68995 16.7314 6.81424 16.7871 6.91281C16.8385 7.0071 16.89 7.16995 16.9414 7.3971L16.95 7.43995L18.2528 8.58852C18.3257 8.65281 18.3771 8.73424 18.3943 8.82852L18.3985 8.85424L18.4114 8.93995C18.4132 8.95734 18.4097 8.97487 18.4013 8.9902C18.3928 9.00552 18.3799 9.01789 18.3643 9.02567L18.3514 9.02995L18.2828 9.05567L18.2185 9.0471C16.8985 8.87567 16.0928 8.72567 15.8014 8.60567C15.5443 8.49852 15.4885 8.25424 15.6343 7.87281C15.7114 7.68424 15.6343 7.52138 15.5657 7.34995C15.4971 7.1871 15.3385 7.07138 15.2185 6.95138C15.0771 6.92567 14.9528 6.95138 14.8157 6.89995C14.7961 6.89074 14.7786 6.87762 14.7643 6.86138C14.6785 6.77567 14.7385 6.63424 14.8414 6.5871C15.0128 6.50138 15.24 6.62995 15.3814 6.71995C15.66 6.77567 15.8657 6.78852 15.9985 6.7671C16.1271 6.74567 16.2685 6.66852 16.4143 6.53995Z" fill="url(#paint1_linear_31_10945)"/>
</g>
<defs>
<linearGradient id="paint0_linear_31_10945" x1="4.46571" y1="4.16143" x2="29.2071" y2="32.58" gradientUnits="userSpaceOnUse">
<stop stop-color="#1A1E21"/>
<stop offset="1" stop-color="#06060A"/>
</linearGradient>
<linearGradient id="paint1_linear_31_10945" x1="6.54854" y1="8.3271" x2="16.2385" y2="18.1628" gradientUnits="userSpaceOnUse">
<stop stop-color="#5250FF"/>
<stop offset="1" stop-color="#E959FF"/>
</linearGradient>
<clipPath id="clip0_31_10945">
<rect width="24" height="24" fill="white"/>
</clipPath>
</defs>
</svg>

<svg xmlns="http://www.w3.org/2000/svg" width="24" height="24" fill="none" viewBox="0 0 24 24"><g clip-path="url(#a)"><path fill="url(#b)" d="M0 0h24v24H0z"/><path fill="url(#c)" d="M14.396 5.207c.531.086.904.189 1.127.322.214.128.45.385.698.771-.133.111-.248.171-.347.189-.27.047-.527-.056-.767-.163a.536.536 0 0 0-.694.248.45.45 0 0 0 .107.523c.141.12.36.15.531.202a.36.36 0 0 1 .137.334.72.72 0 0 1-.205.42l.197.527a3.1 3.1 0 0 1-.857.047c-.562-.034-.969-.583-1.457-.831A4 4 0 0 0 12 7.714C9.429 7.714 7.714 9.72 7.714 12c0 2.254 1.929 4.286 4.32 4.286 1.894 0 3.107-.922 3.823-2.143H14.53c-.665 0-1.252-.343-1.436-.965l-.223-.8a.3.3 0 0 1-.013-.082.3.3 0 0 1 .3-.296h4.886c.403 0 .754.3.801.69l.013.167c.013.703-.364 1.68-.724 2.357a6.9 6.9 0 0 1-6.099 3.643A6.89 6.89 0 0 1 5.143 12c0-3.566 2.773-6.441 6.3-6.737a9 9 0 0 1 1.414-.12c.42 0 .93.026 1.539.064m2.018 1.333q.29.225.373.373.078.142.154.484l.009.043 1.303 1.149a.42.42 0 0 1 .141.24l.005.025.012.086a.09.09 0 0 1-.047.086l-.013.004-.068.026-.065-.009c-1.32-.171-2.125-.321-2.417-.441q-.385-.161-.167-.733c.077-.189 0-.352-.068-.523-.069-.163-.228-.279-.348-.399-.14-.025-.265 0-.402-.051a.2.2 0 0 1-.052-.039c-.085-.085-.025-.227.077-.274.172-.086.399.043.54.133q.419.082.617.047.196-.032.416-.227"/></g><defs><linearGradient id="b" x1="4.466" x2="29.207" y1="4.161" y2="32.58" gradientUnits="userSpaceOnUse"><stop stop-color="#1A1E21"/><stop offset="1" stop-color="#06060A"/></linearGradient><linearGradient id="c" x1="6.549" x2="16.238" y1="8.327" y2="18.163" gradientUnits="userSpaceOnUse"><stop stop-color="#5250FF"/><stop offset="1" stop-color="#E959FF"/></linearGradient><clipPath id="a"><path fill="#fff" d="M0 0h24v24H0z"/></clipPath></defs></svg>
